X:1
T:Peace Will I Give unto You
T:Peace Will I Give unto You
T:Walter Stillman Martin
T:Donald Graul, 1906
T:Public Domain Courtesy of the Cyber Hymnal™
T:Public Domain Courtesy of the Cyber Hymnal™
C:Walter Stillman Martin
Z:Public Domain
Z:Courtesy of the Cyber Hymnal™
%%score ( 1 2 ) ( 3 4 )
L:1/8
Q:1/4=105
M:4/4
K:Ab
V:1 treble 
V:2 treble 
V:3 bass 
V:4 bass 
V:1
 [CE]2 [DF]>[DG] [CA]2 [Ec]2 | (B2 d2) [DF]4 | [DG]2 [DE]>[DF] [DG]2 [Fd]2 | [Ec]6 z2 | %4
w: 1.~Fresh as the dew- drops|fall- * ing|Af- ter the heat of|day,|
w: 2.~Peace like the calm of|even- * ing|Crowned by the sun- set|glow,|
w: 3.~Come, then, O pre- cious|Sav- * ior,|Great peace Thy pre- sence|brings,|
 [CE]2 [DF]>[DG] [CA]2 [Ec]2 | (B2 d2) [DF]4 | [DE]2 [DG]>[CA] [DB]2 [Ec]2 | [CA]6 z2 | %8
w: Sweet as the per- fume|ris- * ing|Up from the new- mown|hay,|
w: Peace like a might- y|ri- * ver|Mov- ing in cease- less|flow;|
w: Lift- ing the heart each|mo- * ment|O- ver all earth- ly|things;|
 [GB]2 [EG]>[FA] [GB]2 [Ge]2 | (=d3 c) [FA]2 z2 | [FA]2 [=EG]>[FA] [B=d]2 [Ac]2 | [GB]6 z2 | %12
w: So to the ach- ing|spir- * it,|Bid- ding its sor- row|cease,|
w: Peace which shall pass all|know- * ledge|Peace none may ev- er|win|
w: Giv- ing a glimpse of|E- * den,|Spir- it of God, O|come,|
 [GB]2 [EG]>[FA] [GB]2 [Ge]2 | (=d3 c) A4 | [GB]2 [^F=A]>[GB] [=F_A]2 [=DF]2 | E6 z2 || %16
w: Com- eth the un- seen|Pre- * sence,|Bear- ing the gift of|peace.|
w: Un- til the heart is|rea- * dy|For Christ to en- ter|in.|
w: Guid- ing thro’ life’s deep|sha- * dows,|Light- ing our jour- ney|home.|
"^Reefrain" c6 [EB]>[Ec] | d6 z2 | d6 [Gf]>[Ge] | e6 z2 | [Ec]2 [=D=B]>[Ec] [F=d]2 [Ec]2 | %21
w: |||||
w: “Peace will I|give,|peace will I|give,”|Free as the dew- drops|
w: |||||
 (F2 c2) [_DB]4 | [DB]2 [C=A]>[DB] [Ec]2 [DB]2 | [CA]6 z2 |] %24
w: |||
w: fall- * ing,|Je- sus His peace will|give.|
w: |||
V:2
 x8 | F4 x4 | x8 | x8 | x8 | F4 x4 | x8 | x8 | x8 | A4 x4 | x8 | x8 | x8 | A4 (F2 c2) | x8 | %15
 E6 x2 || (E2 E>E E2) x2 | (E2 G>F E2) x2 | (E2 G>F E2) x2 | (A2 A>B c2) x2 | x8 | =D4 x4 | x8 | %23
 x8 |] %24
V:3
 [A,,A,]2 [A,,A,]>[A,,A,] [A,,E,]2 [A,,A,]2 | [D,A,]4 [D,B,]4 | %2
w: ~ ~ ~ ~ ~|~ ~|
 [E,B,]2 [E,G,]>[E,A,] [E,B,]2 [E,G,]2 | A,6 z2 | [A,,A,]2 [A,,A,]>[A,,A,] [A,,E,]2 [A,,A,]2 | %5
w: ~ ~ ~ ~ ~|~|~ ~ ~ ~ ~|
 [D,A,]4 [D,B,]4 | [E,G,]2 [E,B,]>[E,A,] [E,G,]2 [E,G,]2 | [A,,A,]6 z2 | E,2 [G,B,]2 E,2 [G,B,E]2 | %9
w: ~ ~|~ ~ ~ ~ ~|~|~ ~ ~ ~|
 (F,2 [A,B,=D]2) (B,,2 [A,B,D]2) | F,2 [A,B,=D]2 B,,2 [A,B,D]2 | E,2 ([G,B,E]2 [G,B,E]2 [G,B,E]2) | %12
w: ~ * ~ *|~ ~ ~ ~|~ ~ * *|
 E,2 [G,B,]2 E,2 [G,B,E]2 | A,,2 [A,CF]2 A,,2 [A,E]2 | C,2 [G,B,E]2 B,,2 [B,,A,]2 | %15
w: ~ ~ ~ ~|~ ~ ~ ~|~ ~ ~ ~|
 ([E,G,B,]2 [E,A,C]2 [E,G,B,D]2) z2 || [A,,A,]2 [C,A,]>[E,A,] A,2 [G,D]>[A,C] | %17
w: ~ * *|“Peace,” Je- sus says, “I will|
 [E,B,]2 [E,B,]>[E,A,] [E,G,]2 z2 | [E,G,]2 [E,B,]>[E,A,] [E,G,]2 [E,D]>[E,D] | %19
w: give un- to you.|Peace,” Je- sus says,” will I|
 [A,C]2 [A,C]>[A,D] [A,E]2 z2 | [A,,A,]2 [A,,A,]>[A,,A,] [F,=A,]2 [F,A,]2 | [B,,A,]4 [B,,A,]4 | %22
w: give un- to you.”|||
 [E,G,]2 [E,^F,]>[E,G,] [E,G,]2 E,2 | [A,,E,]6 z2 |] %24
w: ||
V:4
 x8 | x8 | x8 | A,6 x2 | x8 | x8 | x8 | x8 | x8 | x8 | x8 | x8 | x8 | x8 | x8 | x8 || x4 A,2 x2 | %17
 x8 | x8 | x8 | x8 | x8 | x6 E,2 | x8 |] %24

